bernoullicharts/2014_sub_x-0_3_bits.svg

<?xml version="1.0" encoding="utf-8" standalone="no"?>
<!DOCTYPE svg PUBLIC "-//W3C//DTD SVG 1.1//EN"
  "http://www.w3.org/Graphics/SVG/1.1/DTD/svg11.dtd">
<!-- Created with matplotlib (https://matplotlib.org/) -->
<svg height="345.6pt" version="1.1" viewBox="0 0 460.8 345.6" width="460.8pt" xmlns="http://www.w3.org/2000/svg" xmlns:xlink="http://www.w3.org/1999/xlink">
 <defs>
  <style type="text/css">
*{stroke-linecap:butt;stroke-linejoin:round;}
  </style>
 </defs>
 <g id="figure_1">
  <g id="patch_1">
   <path d="M 0 345.6 
L 460.8 345.6 
L 460.8 0 
L 0 0 
z
" style="fill:#ffffff;"/>
  </g>
  <g id="axes_1">
   <g id="patch_2">
    <path d="M 57.6 307.584 
L 414.72 307.584 
L 414.72 41.472 
L 57.6 41.472 
z
" style="fill:#ffffff;"/>
   </g>
   <g id="matplotlib.axis_1">
    <g id="xtick_1">
     <g id="line2d_1">
      <defs>
       <path d="M 0 0 
L 0 3.5 
" id="mc6ff3afce6" style="stroke:#000000;stroke-width:0.8;"/>
      </defs>
      <g>
       <use style="stroke:#000000;stroke-width:0.8;" x="95.272178" xlink:href="#mc6ff3afce6" y="307.584"/>
      </g>
     </g>
     <g id="text_1">
      <text style="font-family:DejaVu Sans;font-size:10px;font-style:normal;font-weight:normal;text-anchor:middle;" transform="rotate(-0, 95.272178, 322.182437)" x="95.272178" y="322.182437">0.5</text>
     </g>
    </g>
    <g id="xtick_2">
     <g id="line2d_2">
      <g>
       <use style="stroke:#000000;stroke-width:0.8;" x="155.927328" xlink:href="#mc6ff3afce6" y="307.584"/>
      </g>
     </g>
     <g id="text_2">
      <text style="font-family:DejaVu Sans;font-size:10px;font-style:normal;font-weight:normal;text-anchor:middle;" transform="rotate(-0, 155.927328, 322.182437)" x="155.927328" y="322.182437">0.6</text>
     </g>
    </g>
    <g id="xtick_3">
     <g id="line2d_3">
      <g>
       <use style="stroke:#000000;stroke-width:0.8;" x="216.582478" xlink:href="#mc6ff3afce6" y="307.584"/>
      </g>
     </g>
     <g id="text_3">
      <text style="font-family:DejaVu Sans;font-size:10px;font-style:normal;font-weight:normal;text-anchor:middle;" transform="rotate(-0, 216.582478, 322.182437)" x="216.582478" y="322.182437">0.7</text>
     </g>
    </g>
    <g id="xtick_4">
     <g id="line2d_4">
      <g>
       <use style="stroke:#000000;stroke-width:0.8;" x="277.237628" xlink:href="#mc6ff3afce6" y="307.584"/>
      </g>
     </g>
     <g id="text_4">
      <text style="font-family:DejaVu Sans;font-size:10px;font-style:normal;font-weight:normal;text-anchor:middle;" transform="rotate(-0, 277.237628, 322.182437)" x="277.237628" y="322.182437">0.8</text>
     </g>
    </g>
    <g id="xtick_5">
     <g id="line2d_5">
      <g>
       <use style="stroke:#000000;stroke-width:0.8;" x="337.892778" xlink:href="#mc6ff3afce6" y="307.584"/>
      </g>
     </g>
     <g id="text_5">
      <text style="font-family:DejaVu Sans;font-size:10px;font-style:normal;font-weight:normal;text-anchor:middle;" transform="rotate(-0, 337.892778, 322.182437)" x="337.892778" y="322.182437">0.9</text>
     </g>
    </g>
    <g id="xtick_6">
     <g id="line2d_6">
      <g>
       <use style="stroke:#000000;stroke-width:0.8;" x="398.547928" xlink:href="#mc6ff3afce6" y="307.584"/>
      </g>
     </g>
     <g id="text_6">
      <text style="font-family:DejaVu Sans;font-size:10px;font-style:normal;font-weight:normal;text-anchor:middle;" transform="rotate(-0, 398.547928, 322.182437)" x="398.547928" y="322.182437">1.0</text>
     </g>
    </g>
    <g id="text_7">
     <text style="font-family:DejaVu Sans;font-size:10px;font-style:normal;font-weight:normal;text-anchor:middle;" transform="rotate(-0, 236.16, 335.860562)" x="236.16" y="335.860562">Probability</text>
    </g>
   </g>
   <g id="matplotlib.axis_2">
    <g id="ytick_1">
     <g id="line2d_7">
      <defs>
       <path d="M 0 0 
L -3.5 0 
" id="me292db0992" style="stroke:#000000;stroke-width:0.8;"/>
      </defs>
      <g>
       <use style="stroke:#000000;stroke-width:0.8;" x="57.6" xlink:href="#me292db0992" y="283.9724"/>
      </g>
     </g>
     <g id="text_8">
      <text style="font-family:DejaVu Sans;font-size:10px;font-style:normal;font-weight:normal;text-anchor:end;" transform="rotate(-0, 50.6, 287.771619)" x="50.6" y="287.771619">50</text>
     </g>
    </g>
    <g id="ytick_2">
     <g id="line2d_8">
      <g>
       <use style="stroke:#000000;stroke-width:0.8;" x="57.6" xlink:href="#me292db0992" y="253.578607"/>
      </g>
     </g>
     <g id="text_9">
      <text style="font-family:DejaVu Sans;font-size:10px;font-style:normal;font-weight:normal;text-anchor:end;" transform="rotate(-0, 50.6, 257.377826)" x="50.6" y="257.377826">75</text>
     </g>
    </g>
    <g id="ytick_3">
     <g id="line2d_9">
      <g>
       <use style="stroke:#000000;stroke-width:0.8;" x="57.6" xlink:href="#me292db0992" y="223.184815"/>
      </g>
     </g>
     <g id="text_10">
      <text style="font-family:DejaVu Sans;font-size:10px;font-style:normal;font-weight:normal;text-anchor:end;" transform="rotate(-0, 50.6, 226.984033)" x="50.6" y="226.984033">100</text>
     </g>
    </g>
    <g id="ytick_4">
     <g id="line2d_10">
      <g>
       <use style="stroke:#000000;stroke-width:0.8;" x="57.6" xlink:href="#me292db0992" y="192.791022"/>
      </g>
     </g>
     <g id="text_11">
      <text style="font-family:DejaVu Sans;font-size:10px;font-style:normal;font-weight:normal;text-anchor:end;" transform="rotate(-0, 50.6, 196.590241)" x="50.6" y="196.590241">125</text>
     </g>
    </g>
    <g id="ytick_5">
     <g id="line2d_11">
      <g>
       <use style="stroke:#000000;stroke-width:0.8;" x="57.6" xlink:href="#me292db0992" y="162.39723"/>
      </g>
     </g>
     <g id="text_12">
      <text style="font-family:DejaVu Sans;font-size:10px;font-style:normal;font-weight:normal;text-anchor:end;" transform="rotate(-0, 50.6, 166.196448)" x="50.6" y="166.196448">150</text>
     </g>
    </g>
    <g id="ytick_6">
     <g id="line2d_12">
      <g>
       <use style="stroke:#000000;stroke-width:0.8;" x="57.6" xlink:href="#me292db0992" y="132.003437"/>
      </g>
     </g>
     <g id="text_13">
      <text style="font-family:DejaVu Sans;font-size:10px;font-style:normal;font-weight:normal;text-anchor:end;" transform="rotate(-0, 50.6, 135.802656)" x="50.6" y="135.802656">175</text>
     </g>
    </g>
    <g id="ytick_7">
     <g id="line2d_13">
      <g>
       <use style="stroke:#000000;stroke-width:0.8;" x="57.6" xlink:href="#me292db0992" y="101.609644"/>
      </g>
     </g>
     <g id="text_14">
      <text style="font-family:DejaVu Sans;font-size:10px;font-style:normal;font-weight:normal;text-anchor:end;" transform="rotate(-0, 50.6, 105.408863)" x="50.6" y="105.408863">200</text>
     </g>
    </g>
    <g id="ytick_8">
     <g id="line2d_14">
      <g>
       <use style="stroke:#000000;stroke-width:0.8;" x="57.6" xlink:href="#me292db0992" y="71.215852"/>
      </g>
     </g>
     <g id="text_15">
      <text style="font-family:DejaVu Sans;font-size:10px;font-style:normal;font-weight:normal;text-anchor:end;" transform="rotate(-0, 50.6, 75.01507)" x="50.6" y="75.01507">225</text>
     </g>
    </g>
    <g id="text_16">
     <text style="font-family:DejaVu Sans;font-size:10px;font-style:normal;font-weight:normal;text-anchor:middle;" transform="rotate(-90, 25.432812, 174.528)" x="25.432812" y="174.528">Average Bits Consumed Per Call</text>
    </g>
   </g>
   <g id="line2d_15">
    <path clip-path="url(#pff51b01ba2)" d="M 73.832727 167.216469 
M 92.2094 213.291027 
L 98.334957 224.558614 
M 110.586072 225.57012 
L 116.71163 235.634112 
M 128.962744 234.396477 
M 141.213859 227.354843 
L 147.339417 244.810606 
L 153.464974 246.794713 
L 159.590532 238.99445 
L 165.716089 242.041124 
L 171.841647 233.392266 
M 184.092762 260.447604 
L 190.218319 249.712517 
L 196.343877 264.486332 
L 202.469434 272.982004 
L 208.594991 270.037454 
L 214.720549 249.328339 
L 220.846106 263.671778 
L 226.971664 265.509994 
L 233.097221 270.248995 
L 239.222779 264.909413 
L 245.348336 270.762042 
L 251.473894 270.69396 
L 257.599451 280.41511 
L 263.725009 273.086559 
L 269.850566 262.152088 
L 275.976123 278.122203 
L 282.101681 278.234052 
L 288.227238 274.253681 
L 294.352796 283.016819 
L 300.478353 267.902594 
L 306.603911 280.011481 
L 312.729468 274.776454 
L 318.855026 281.132404 
L 324.980583 274.710803 
L 331.106141 281.353671 
L 337.231698 286.634896 
L 343.357256 278.518538 
L 349.482813 287.301128 
L 355.60837 279.936104 
L 361.733928 286.428218 
L 367.859485 290.515576 
L 373.985043 295.488 
L 380.1106 288.353969 
L 386.236158 294.967658 
L 392.361715 289.642666 
L 398.487273 290.481534 
" style="fill:none;stroke:#1f77b4;stroke-linecap:square;stroke-width:1.5;"/>
   </g>
   <g id="line2d_16">
    <path clip-path="url(#pff51b01ba2)" d="M 116.71163 56.758132 
L 122.837187 57.446248 
L 128.962744 53.568 
L 135.088302 69.170957 
M 147.339417 83.3758 
L 153.464974 79.94738 
L 159.590532 114.902673 
L 165.716089 77.707966 
L 171.841647 96.809857 
L 177.967204 129.637584 
L 184.092762 89.029046 
L 190.218319 125.428652 
L 196.343877 134.196653 
L 202.469434 163.024557 
L 208.594991 143.144586 
L 214.720549 156.632135 
L 220.846106 120.587528 
L 226.971664 145.25513 
L 233.097221 166.501607 
L 239.222779 163.661611 
L 245.348336 157.22299 
L 251.473894 203.081145 
L 257.599451 189.909691 
L 263.725009 192.929618 
L 269.850566 192.540577 
L 275.976123 184.212678 
L 282.101681 189.182671 
L 288.227238 190.746128 
L 294.352796 198.050364 
L 300.478353 205.247614 
L 306.603911 193.367288 
L 312.729468 191.68712 
L 318.855026 210.409696 
L 324.980583 197.595673 
L 331.106141 212.695309 
L 337.231698 212.717193 
L 343.357256 225.353716 
L 349.482813 221.920433 
L 355.60837 212.495926 
L 361.733928 218.385027 
L 367.859485 227.512891 
L 373.985043 225.847311 
L 380.1106 227.726863 
L 386.236158 229.008265 
L 392.361715 227.393747 
L 398.487273 232.341857 
" style="fill:none;stroke:#ff7f0e;stroke-linecap:square;stroke-width:1.5;"/>
   </g>
   <g id="line2d_17">
    <path clip-path="url(#pff51b01ba2)" d="M 116.71163 103.17067 
M 128.962744 181.063881 
L 135.088302 154.674775 
L 141.213859 127.06019 
L 147.339417 153.539263 
L 153.464974 146.913416 
M 190.218319 189.435547 
L 196.343877 198.806562 
L 202.469434 194.140506 
M 214.720549 228.422273 
L 220.846106 229.11282 
L 226.971664 225.601729 
M 239.222779 229.949257 
L 245.348336 231.794768 
M 257.599451 252.409054 
L 263.725009 238.520307 
L 269.850566 239.777394 
M 282.101681 260.323598 
L 288.227238 238.564074 
M 300.478353 255.438707 
L 306.603911 246.301118 
L 312.729468 247.312623 
M 324.980583 255.526242 
L 331.106141 259.377743 
L 337.231698 261.303494 
L 343.357256 266.222425 
L 349.482813 272.189334 
L 355.60837 266.339137 
L 361.733928 254.378572 
L 367.859485 272.451937 
L 373.985043 270.270878 
L 380.1106 267.391978 
L 386.236158 275.160632 
L 392.361715 273.329709 
L 398.487273 268.094683 
" style="fill:none;stroke:#2ca02c;stroke-linecap:square;stroke-width:1.5;"/>
   </g>
   <g id="patch_3">
    <path d="M 57.6 307.584 
L 57.6 41.472 
" style="fill:none;stroke:#000000;stroke-linecap:square;stroke-linejoin:miter;stroke-width:0.8;"/>
   </g>
   <g id="patch_4">
    <path d="M 414.72 307.584 
L 414.72 41.472 
" style="fill:none;stroke:#000000;stroke-linecap:square;stroke-linejoin:miter;stroke-width:0.8;"/>
   </g>
   <g id="patch_5">
    <path d="M 57.6 307.584 
L 414.72 307.584 
" style="fill:none;stroke:#000000;stroke-linecap:square;stroke-linejoin:miter;stroke-width:0.8;"/>
   </g>
   <g id="patch_6">
    <path d="M 57.6 41.472 
L 414.72 41.472 
" style="fill:none;stroke:#000000;stroke-linecap:square;stroke-linejoin:miter;stroke-width:0.8;"/>
   </g>
   <g id="text_17">
    <text style="font-family:DejaVu Sans;font-size:12px;font-style:normal;font-weight:normal;text-anchor:middle;" transform="rotate(-0, 236.16, 35.472)" x="236.16" y="35.472">Avg. Bits Consumed by 2014 Sub. x-0.3 Algorithm</text>
   </g>
   <g id="legend_1">
    <g id="patch_7">
     <path d="M 296.271563 93.506375 
L 407.72 93.506375 
Q 409.72 93.506375 409.72 91.506375 
L 409.72 48.472 
Q 409.72 46.472 407.72 46.472 
L 296.271563 46.472 
Q 294.271563 46.472 294.271563 48.472 
L 294.271563 91.506375 
Q 294.271563 93.506375 296.271563 93.506375 
z
" style="fill:#ffffff;opacity:0.8;stroke:#cccccc;stroke-linejoin:miter;"/>
    </g>
    <g id="line2d_18">
     <path d="M 298.271563 54.570438 
L 318.271563 54.570438 
" style="fill:none;stroke:#1f77b4;stroke-linecap:square;stroke-width:1.5;"/>
    </g>
    <g id="line2d_19"/>
    <g id="text_18">
     <text style="font-family:DejaVu Sans;font-size:10px;font-style:normal;font-weight:normal;text-anchor:start;" transform="rotate(-0, 326.271563, 58.070438)" x="326.271563" y="58.070438">2014 Sub. x-0.3</text>
    </g>
    <g id="line2d_20">
     <path d="M 298.271563 69.248563 
L 318.271563 69.248563 
" style="fill:none;stroke:#ff7f0e;stroke-linecap:square;stroke-width:1.5;"/>
    </g>
    <g id="line2d_21"/>
    <g id="text_19">
     <text style="font-family:DejaVu Sans;font-size:10px;font-style:normal;font-weight:normal;text-anchor:start;" transform="rotate(-0, 326.271563, 72.748563)" x="326.271563" y="72.748563">2016 Sub. x-0.3</text>
    </g>
    <g id="line2d_22">
     <path d="M 298.271563 83.926688 
L 318.271563 83.926688 
" style="fill:none;stroke:#2ca02c;stroke-linecap:square;stroke-width:1.5;"/>
    </g>
    <g id="line2d_23"/>
    <g id="text_20">
     <text style="font-family:DejaVu Sans;font-size:10px;font-style:normal;font-weight:normal;text-anchor:start;" transform="rotate(-0, 326.271563, 87.426688)" x="326.271563" y="87.426688">2019 Sub. x-0.3</text>
    </g>
   </g>
  </g>
 </g>
 <defs>
  <clipPath id="pff51b01ba2">
   <rect height="266.112" width="357.12" x="57.6" y="41.472"/>
  </clipPath>
 </defs>
</svg>

<svg height="460.8" viewBox="0 0 460.8 345.6" width="614.4" xmlns="http://www.w3.org/2000/svg" xmlns:xlink="http://www.w3.org/1999/xlink"><defs><style>*{stroke-linecap:butt;stroke-linejoin:round}</style></defs><g id="figure_1"><path d="M0 345.6h460.8V0H0z" fill="#fff" id="patch_1"/><g id="axes_1"><path d="M57.6 307.584h357.12V41.472H57.6z" fill="#fff" id="patch_2"/><g id="matplotlib.axis_1"><g id="xtick_1"><g id="line2d_1"><defs><path d="M0 0v3.5" id="mc6ff3afce6" stroke="#000" stroke-width=".8"/></defs><use x="95.272" xlink:href="#mc6ff3afce6" y="307.584" stroke="#000" stroke-width=".8"/></g><text x="95.272" y="322.182" font-family="DejaVu Sans" font-size="10" font-weight="400" text-anchor="middle" id="text_1">0.5</text></g><g id="xtick_2"><use x="155.927" xlink:href="#mc6ff3afce6" y="307.584" stroke="#000" stroke-width=".8" id="line2d_2"/><text x="155.927" y="322.182" font-family="DejaVu Sans" font-size="10" font-weight="400" text-anchor="middle" id="text_2">0.6</text></g><g id="xtick_3"><use x="216.582" xlink:href="#mc6ff3afce6" y="307.584" stroke="#000" stroke-width=".8" id="line2d_3"/><text x="216.582" y="322.182" font-family="DejaVu Sans" font-size="10" font-weight="400" text-anchor="middle" id="text_3">0.7</text></g><g id="xtick_4"><use x="277.238" xlink:href="#mc6ff3afce6" y="307.584" stroke="#000" stroke-width=".8" id="line2d_4"/><text x="277.238" y="322.182" font-family="DejaVu Sans" font-size="10" font-weight="400" text-anchor="middle" id="text_4">0.8</text></g><g id="xtick_5"><use x="337.893" xlink:href="#mc6ff3afce6" y="307.584" stroke="#000" stroke-width=".8" id="line2d_5"/><text x="337.893" y="322.182" font-family="DejaVu Sans" font-size="10" font-weight="400" text-anchor="middle" id="text_5">0.9</text></g><g id="xtick_6"><use x="398.548" xlink:href="#mc6ff3afce6" y="307.584" stroke="#000" stroke-width=".8" id="line2d_6"/><text x="398.548" y="322.182" font-family="DejaVu Sans" font-size="10" font-weight="400" text-anchor="middle" id="text_6">1.0</text></g><text x="236.16" y="335.861" font-family="DejaVu Sans" font-size="10" font-weight="400" text-anchor="middle" id="text_7">Probability</text></g><g id="matplotlib.axis_2"><g id="ytick_1"><g id="line2d_7"><defs><path d="M0 0h-3.5" id="me292db0992" stroke="#000" stroke-width=".8"/></defs><use x="57.6" xlink:href="#me292db0992" y="283.972" stroke="#000" stroke-width=".8"/></g><text x="50.6" y="287.772" font-family="DejaVu Sans" font-size="10" font-weight="400" text-anchor="end" id="text_8">50</text></g><g id="ytick_2"><use x="57.6" xlink:href="#me292db0992" y="253.579" stroke="#000" stroke-width=".8" id="line2d_8"/><text x="50.6" y="257.378" font-family="DejaVu Sans" font-size="10" font-weight="400" text-anchor="end" id="text_9">75</text></g><g id="ytick_3"><use x="57.6" xlink:href="#me292db0992" y="223.185" stroke="#000" stroke-width=".8" id="line2d_9"/><text x="50.6" y="226.984" font-family="DejaVu Sans" font-size="10" font-weight="400" text-anchor="end" id="text_10">100</text></g><g id="ytick_4"><use x="57.6" xlink:href="#me292db0992" y="192.791" stroke="#000" stroke-width=".8" id="line2d_10"/><text x="50.6" y="196.59" font-family="DejaVu Sans" font-size="10" font-weight="400" text-anchor="end" id="text_11">125</text></g><g id="ytick_5"><use x="57.6" xlink:href="#me292db0992" y="162.397" stroke="#000" stroke-width=".8" id="line2d_11"/><text x="50.6" y="166.196" font-family="DejaVu Sans" font-size="10" font-weight="400" text-anchor="end" id="text_12">150</text></g><g id="ytick_6"><use x="57.6" xlink:href="#me292db0992" y="132.003" stroke="#000" stroke-width=".8" id="line2d_12"/><text x="50.6" y="135.803" font-family="DejaVu Sans" font-size="10" font-weight="400" text-anchor="end" id="text_13">175</text></g><g id="ytick_7"><use x="57.6" xlink:href="#me292db0992" y="101.61" stroke="#000" stroke-width=".8" id="line2d_13"/><text x="50.6" y="105.409" font-family="DejaVu Sans" font-size="10" font-weight="400" text-anchor="end" id="text_14">200</text></g><g id="ytick_8"><use x="57.6" xlink:href="#me292db0992" y="71.216" stroke="#000" stroke-width=".8" id="line2d_14"/><text x="50.6" y="75.015" font-family="DejaVu Sans" font-size="10" font-weight="400" text-anchor="end" id="text_15">225</text></g><text transform="rotate(-90 25.433 174.528)" x="25.433" y="174.528" font-family="DejaVu Sans" font-size="10" font-weight="400" text-anchor="middle" id="text_16">Average Bits Consumed Per Call</text></g><path clip-path="url(#pff51b01ba2)" d="M92.209 213.291l6.126 11.268m12.251 1.011l6.126 10.064M141.214 227.355l6.125 17.456 6.126 1.984 6.126-7.8 6.125 3.046 6.126-8.649m12.25 27.056l6.126-10.735 6.126 14.773 6.125 8.496 6.126-2.945 6.126-20.709 6.125 14.344 6.126 1.838 6.125 4.739 6.126-5.34 6.125 5.853 6.126-.068 6.125 9.721 6.126-7.328 6.126-10.935 6.125 15.97 6.126.112 6.125-3.98 6.126 8.763 6.125-15.114 6.126 12.108 6.125-5.235 6.126 6.356 6.126-6.421 6.125 6.643 6.126 5.28 6.125-8.115 6.126 8.782 6.125-7.365 6.126 6.492 6.125 4.088 6.126 4.972 6.126-7.134 6.125 6.614 6.126-5.325 6.125.839" fill="none" stroke="#1f77b4" stroke-linecap="square" stroke-width="1.5" id="line2d_15"/><path clip-path="url(#pff51b01ba2)" d="M116.712 56.758l6.125.688 6.126-3.878 6.125 15.603m12.251 14.205l6.126-3.429 6.126 34.956 6.125-37.195 6.126 19.102 6.125 32.828 6.126-40.609 6.125 36.4 6.126 8.768 6.125 28.828 6.126-19.88 6.126 13.487 6.125-36.044 6.126 24.667 6.125 21.247 6.126-2.84 6.125-6.439 6.126 45.858 6.125-13.171 6.126 3.02 6.126-.39 6.125-8.327 6.126 4.97 6.125 1.563 6.126 7.304 6.125 7.198 6.126-11.88 6.125-1.68 6.126 18.722 6.126-12.814 6.125 15.1 6.126.021 6.125 12.637 6.126-3.434 6.125-9.424 6.126 5.889 6.125 9.128 6.126-1.666 6.126 1.88 6.125 1.281 6.126-1.614 6.125 4.948" fill="none" stroke="#ff7f0e" stroke-linecap="square" stroke-width="1.5" id="line2d_16"/><path clip-path="url(#pff51b01ba2)" d="M128.962 181.06400000000002l6.126-26.39 6.126-27.614 6.125 26.48 6.126-6.627m36.753 42.523l6.126 9.37 6.125-4.665m12.252 34.281l6.125.69 6.126-3.51m12.25 4.347l6.126 1.846m12.251 20.614l6.126-13.889 6.126 1.257m12.25 20.547l6.126-21.76m12.251 16.875l6.126-9.138 6.125 1.012m12.252 8.213l6.125 3.852 6.126 1.925 6.125 4.92 6.126 5.966 6.125-5.85 6.126-11.96 6.125 18.073 6.126-2.181 6.126-2.879 6.125 7.769 6.126-1.831 6.125-5.235" fill="none" stroke="#2ca02c" stroke-linecap="square" stroke-width="1.5" id="line2d_17"/><path d="M57.6 307.584V41.472" fill="none" stroke="#000" stroke-linecap="square" stroke-width=".8" id="patch_3"/><path d="M414.72 307.584V41.472" fill="none" stroke="#000" stroke-linecap="square" stroke-width=".8" id="patch_4"/><path d="M57.6 307.584h357.12" fill="none" stroke="#000" stroke-linecap="square" stroke-width=".8" id="patch_5"/><path d="M57.6 41.472h357.12" fill="none" stroke="#000" stroke-linecap="square" stroke-width=".8" id="patch_6"/><text x="236.16" y="35.472" font-family="DejaVu Sans" font-size="12" font-weight="400" text-anchor="middle" id="text_17">Avg. Bits Consumed by 2014 Sub. x-0.3 Algorithm</text><g id="legend_1"><path d="M296.272 93.506H407.72q2 0 2-2V48.472q0-2-2-2H296.272q-2 0-2 2v43.034q0 2 2 2z" fill="#fff" opacity=".8" stroke="#ccc" id="patch_7"/><path d="M298.272 54.57h20" fill="none" stroke="#1f77b4" stroke-linecap="square" stroke-width="1.5" id="line2d_18"/><text x="326.272" y="58.07" font-family="DejaVu Sans" font-size="10" font-weight="400" id="text_18">2014 Sub. x-0.3</text><path d="M298.272 69.249h20" fill="none" stroke="#ff7f0e" stroke-linecap="square" stroke-width="1.5" id="line2d_20"/><text x="326.272" y="72.749" font-family="DejaVu Sans" font-size="10" font-weight="400" id="text_19">2016 Sub. x-0.3</text><path d="M298.272 83.927h20" fill="none" stroke="#2ca02c" stroke-linecap="square" stroke-width="1.5" id="line2d_22"/><text x="326.272" y="87.427" font-family="DejaVu Sans" font-size="10" font-weight="400" id="text_20">2019 Sub. x-0.3</text></g></g></g><defs><clipPath id="pff51b01ba2"><path d="M57.6 41.472h357.12v266.112H57.6z"/></clipPath></defs></svg>
